X:1
T:Green Bed
M:4/4
L:1/4
K:C
 C| D3/2- E/2 F G| c2 A A| G3/2- F/2 EF/2-E/2| D3A/2-B/2| c AA/2-B/2 c|\
 d2 c B| A- G Ec/2-B/2| A3 A/2B/2| c2A/2-B/2 c| d d c B| A G c E| F- E D C|\
 G3/2- E/2 F G| c2 A A| G3/2- F/2 EF/2-E/2| D3||
